X: 18144
T: Humours Of Clare, The
R: jig
M: 6/8
K: Dmixolydian
|:D3 FDF|ECE (G2 E)|DED F2 G|ABc BGE|
D3 FDF|ECE (G2 E)|AGE ({d}c2) A|1 GEC CDE:|2 GEC EFG||
|:A2 G FEF|DEF (G2 E)|A2 G FEF|ABc BGE|
A2 G FEF|DEF (G2 E)|AGE ({d}c2) A|1 GEC EFG:|2 GEC CDE||
|:dAG FDF|ECE (G2 E)|dAG F2 G|ABc BGE|
dAG FDF|ECE (G2 E)|AGE ({d}c2) A|1 GEC CDE:|2 GEC EFG||

